X:1
T:Johnnie Troy
M:6/8
L:1/8
K:G
 G| C2 C D2 E| F2 G =B2 A| G2 A E2 D| C3- C2 E| G2 E GAB| c2 c BAG|\
 A2 c AGE| G3- G2 E| G2 E GAB| c2 c BAG| A2 c AGE| G3- G2 E| C2 C D2 E|\
 =F2 G B2 A| G A2 E2 D| C3- C2||
